X:5024
T:The Wolfs Island Polka
M:2/4
R:Polka
L:1/8
C:Aidan Crossey
K:G
|:G/A/|BG GA/G/|cE EF/G/|AA/B/ A/G/F/E/|Dd dB/c/|
BG GA/G/|cE EF/G/|AA/B/ A/G/F/E/|DF G:||
|:G/A|BG GA/B/|ce dB/c/|d/g/f/e/ d/c/B/G/|BA AB/c/|
BG GA/G/|ce dB/c/|d/c/B/A/ G/F/E/D/|EF G:||
